dist/assets/img/sofa-icon-06.svg

<svg width="159" height="47" fill="none" xmlns="http://www.w3.org/2000/svg"><path fill-rule="evenodd" clip-rule="evenodd" d="M59 1h45V0H59v1ZM11 5v8H4c-2.2 0-4 1.8-4 4v26h56V1h-1v23H12V5c0-2.2 1.8-4 4-4h40V0H16c-2.8 0-5 2.2-5 5Zm0 13H1v1h10v23H1V17c0-1.7 1.3-3 3-3h7v4Zm1 7h43v9H12v-9Zm0 10h43v7H12v-7Zm143-22h-7V5c0-2.8-2.2-5-5-5h-36v43.5l3.5 3.5H156v-4h3V17c0-2.2-1.8-4-4-4Zm-45 32.1-2-2.1v-8h2v10.1Zm0-11.1h-2v-9h2v9Zm-2-10V1h35c2.2 0 4 1.8 4 4v19h-39Zm47 22h-44V35h44v11Zm0-12h-44v-9h44v9Zm3-16h-10v1h10v23h-2V24h-8V14h7c1.7 0 3 1.3 3 3v1ZM34 15v-2h2v-1h-2v-2h-1v2h-2v1h2v2h1Zm70-14h-1v23H60V1h-1v42h45V1Zm-1 41H60v-7h43v7Zm0-8H60v-9h43v9ZM81 10v2h-2v1h2v2h1v-2h2v-1h-2v-2h-1Zm47 0h-1v2h-2v1h2v2h1v-2h2v-1h-2v-2Z" fill="#383838"/></svg>

<svg width="159" height="47" viewBox="0 0 159 47" fill="none" xmlns="http://www.w3.org/2000/svg">
<path fill-rule="evenodd" clip-rule="evenodd" d="M59 1H104V0H59V1ZM11 5V13H4C1.8 13 0 14.8 0 17V43H56V1H55V24H12V5C12 2.8 13.8 1 16 1H56V0H16C13.2 0 11 2.2 11 5ZM11 18H1V19H11V42H1V17C1 15.3 2.3 14 4 14H11V18ZM12 25H55V34H12V25ZM12 35H55V42H12V35ZM155 13H148V5C148 2.2 145.8 0 143 0H107V43.5L110.5 47H156V43H159V17C159 14.8 157.2 13 155 13ZM110 45.1L108 43V35H110V45.1ZM110 34H108V25H110V34ZM108 24V1H143C145.2 1 147 2.8 147 5V24H108ZM155 46H111V35H155V46ZM155 34H111V25H155V34ZM158 18H148V19H158V42H156V24H148V14H155C156.7 14 158 15.3 158 17V18ZM34 15V13H36V12H34V10H33V12H31V13H33V15H34ZM104 1H103V24H60V1H59V43H104V1ZM103 42H60V35H103V42ZM103 34H60V25H103V34ZM81 10V12H79V13H81V15H82V13H84V12H82V10H81ZM128 10H127V12H125V13H127V15H128V13H130V12H128V10Z" fill="#383838"/>
</svg>
